svgs/thin/square-arrow-left.svg

<svg xmlns="http://www.w3.org/2000/svg" viewBox="0 0 448 512"><!--! Font Awesome Pro 6.3.0 by @fontawesome - https://fontawesome.com License - https://fontawesome.com/license (Commercial License) Copyright 2023 Fonticons, Inc. --><path d="M98.34 250.3c-3.125 3.125-3.125 8.188 0 11.31l120 120C219.9 383.2 221.9 384 224 384s4.094-.7813 5.656-2.344c3.125-3.125 3.125-8.188 0-11.31L123.3 264H344c4.406 0 8-3.576 8-7.997C352 251.6 348.4 248 344 248H123.3l106.3-106.3c3.125-3.125 3.125-8.188 0-11.31s-8.188-3.125-11.31 0L98.34 250.3zM0 96v320c0 35.35 28.65 64 64 64h320c35.35 0 64-28.65 64-64V96c0-35.35-28.65-64-64-64H64C28.65 32 0 60.65 0 96zM384 48c26.47 0 48 21.53 48 48v320c0 26.47-21.53 48-48 48H64c-26.47 0-48-21.53-48-48V96c0-26.47 21.53-48 48-48H384z"/></svg>

<svg xmlns="http://www.w3.org/2000/svg" viewBox="0 0 448 512"><!-- Font Awesome Pro 6.0.0-alpha2 by @fontawesome - https://fontawesome.com License - https://fontawesome.com/license (Commercial License) --><path d="M98.344 250.344C95.219 253.469 95.219 258.531 98.344 261.656L218.344 381.656C219.906 383.219 221.938 384 224 384S228.094 383.219 229.656 381.656C232.781 378.531 232.781 373.469 229.656 370.344L123.312 264H344C348.406 264 352 260.422 352 256S348.406 248 344 248H123.312L229.656 141.656C232.781 138.531 232.781 133.469 229.656 130.344S221.469 127.219 218.344 130.344L98.344 250.344ZM0 96V416C0 451.348 28.652 480 64 480H384C419.346 480 448 451.348 448 416V96C448 60.652 419.346 32 384 32H64C28.652 32 0 60.652 0 96ZM384 48C410.467 48 432 69.531 432 96V416C432 442.469 410.467 464 384 464H64C37.533 464 16 442.469 16 416V96C16 69.531 37.533 48 64 48H384Z"/></svg>
